ix/blur_outline.svg

<svg viewBox="0 0 24 24" fill="none" xmlns="http://www.w3.org/2000/svg" height="1em" width="1em">
  <path d="M12.0005 22.75C7.12049 22.75 3.15051 18.78 3.15051 13.9C3.12051 8.17 8.58048 3.4 10.9305 1.61C11.5605 1.13 12.4405 1.13 13.0705 1.61C15.4205 3.43 20.8805 8.26 20.8505 13.91C20.8505 18.78 16.8805 22.75 12.0005 22.75ZM12.0005 2.75C11.9505 2.75 11.8905 2.77 11.8405 2.81C10.1505 4.1 4.63046 8.71 4.66046 13.9C4.66046 17.96 7.9605 21.25 12.0105 21.25C16.0605 21.25 19.3605 17.96 19.3605 13.91C19.3905 8.79 13.8605 4.12 12.1605 2.81C12.1005 2.77 12.0505 2.75 12.0005 2.75Z" fill="#292D32"/>
  <path d="M12 22.75C11.59 22.75 11.25 22.41 11.25 22V2C11.25 1.59 11.59 1.25 12 1.25C12.41 1.25 12.75 1.59 12.75 2V22C12.75 22.41 12.41 22.75 12 22.75Z" fill="#292D32"/>
  <path d="M11.9999 19.7102C11.7199 19.7102 11.4499 19.5502 11.3199 19.2902C11.1399 18.9202 11.2899 18.4702 11.6699 18.2902L19.3699 14.5502C19.7399 14.3702 20.1899 14.5302 20.3699 14.9002C20.5499 15.2702 20.4 15.7202 20.02 15.9002L12.3199 19.6402C12.2199 19.6802 12.1099 19.7102 11.9999 19.7102Z" fill="#292D32"/>
  <path d="M11.9999 14.7101C11.7199 14.7101 11.4499 14.5501 11.3199 14.2901C11.1399 13.9201 11.2899 13.4701 11.6699 13.2901L19.0399 9.71008C19.4099 9.53008 19.8599 9.68008 20.0399 10.0601C20.2199 10.4401 20.0699 10.8801 19.6899 11.0601L12.3199 14.6401C12.2199 14.6801 12.1099 14.7101 11.9999 14.7101Z" fill="#292D32"/>
  <path d="M11.9999 9.70997C11.7199 9.70997 11.4499 9.54997 11.3199 9.28997C11.1399 8.91997 11.2899 8.46997 11.6699 8.28997L16.7 5.84997C17.07 5.66997 17.52 5.82996 17.7 6.19996C17.88 6.56996 17.7299 7.01996 17.3499 7.19996L12.3199 9.63997C12.2199 9.67997 12.1099 9.70997 11.9999 9.70997Z" fill="#292D32"/>
</svg>

<svg viewBox="0 0 24 24" fill="none" xmlns="http://www.w3.org/2000/svg" height="1em" width="1em">
  <path d="M12 22.75c-4.88 0-8.85-3.97-8.85-8.85-.03-5.73 5.43-10.5 7.78-12.29a1.77 1.77 0 0 1 2.14 0c2.35 1.82 7.81 6.65 7.78 12.3 0 4.87-3.97 8.84-8.85 8.84Zm0-20c-.05 0-.11.02-.16.06-1.69 1.29-7.21 5.9-7.18 11.09 0 4.06 3.3 7.35 7.35 7.35s7.35-3.29 7.35-7.34c.03-5.12-5.5-9.79-7.2-11.1a.29.29 0 0 0-.16-.06Z" fill="#292D32"/>
  <path d="M12 22.75c-.41 0-.75-.34-.75-.75V2c0-.41.34-.75.75-.75s.75.34.75.75v20c0 .41-.34.75-.75.75Z" fill="#292D32"/>
  <path d="M12 19.71c-.28 0-.55-.16-.68-.42a.744.744 0 0 1 .35-1l7.7-3.74c.37-.18.82-.02 1 .35.18.37.03.82-.35 1l-7.7 3.74c-.1.04-.21.07-.32.07Zm0-5c-.28 0-.55-.16-.68-.42a.744.744 0 0 1 .35-1l7.37-3.58c.37-.18.82-.03 1 .35.18.38.03.82-.35 1l-7.37 3.58c-.1.04-.21.07-.32.07Zm0-5c-.28 0-.55-.16-.68-.42a.744.744 0 0 1 .35-1l5.03-2.44c.37-.18.82-.02 1 .35.18.37.03.82-.35 1l-5.03 2.44c-.1.04-.21.07-.32.07Z" fill="#292D32"/>
</svg>
